icons/1_Primary/Paycor.svg

<svg xmlns="http://www.w3.org/2000/svg" width="1024" height="1024" fill="none">
   <g clip-path="url(#a)">
      <path fill="#F8C18C" d="M512 1024c282.77 0 512-229.23 512-512S794.77 0 512 0 0 229.23 0 512s229.23 512 512 512Z"/>
      <path fill="#fff" d="M316.91 498.89A33.141 33.141 0 0 0 326.5 475a28.29 28.29 0 0 0-8-20.33c-11.43-11.43-31.29-13.1-55.06-13.1H212v119.76c0 .546.217 1.07.603 1.457.387.386.911.603 1.457.603h26v-49.34s11.87.29 19.32.29c18.93 0 43.06-.76 57.53-15.45Zm-76.84 5.93V451.1c4.81-.435 9.642-.592 14.47-.47 15.27 0 43.41 2.06 43.41 26.23 0 25.32-26.08 28.29-45.29 28.29-7.45 0-12.59-.32-12.59-.32v-.01ZM852 484.06c0-1.16 0-2-1.52-2.53a57.178 57.178 0 0 0-19.43-2.53 116.904 116.904 0 0 0-33.79 5.28v-2a2.1 2.1 0 0 0-2.06-2.06h-26.08v81.18a2 2 0 0 0 2 2.06h26.08V513c0-15.23 14.69-21.53 30-21.53a72.902 72.902 0 0 1 24.8 4.75v-12.16Zm-477.21-6.66c-22.21 0-36.18 5.72-39.79 7.45a2.707 2.707 0 0 0-1.56 2.39v12.19a64.714 64.714 0 0 1 33.07-9.19 26.558 26.558 0 0 1 19.14 7c3.33 3.36 5 7.42 5 15.88 0 0-12.7-1-22.65-1-18.09 0-52.6 3.26-52.6 27.75 0 11.65 8.79 24.35 36.94 24.35a116.426 116.426 0 0 0 38.27-6.95v4.05c0 .546.217 1.07.603 1.457.387.386.911.603 1.457.603h26v-54.9c.01-20.22-12.87-31.08-43.88-31.08Zm16 69.64a58.752 58.752 0 0 1-24.09 5.61c-12.12 0-22.28-4.16-22.28-15.45 0-12.37 10.85-16.5 36.18-16.5 5.1 0 10.2.22 10.2.22l-.01 26.12Zm125.31-66.89a3.002 3.002 0 0 0-2.64 1.7l-33 61.5s-32.09-59.87-33.1-61.5a2.863 2.863 0 0 0-2.68-1.56h-22.9L468.24 566 446 606.27h24.09a3.359 3.359 0 0 0 3.26-1.88l67.87-124.23-25.12-.01Zm13-54.48a13.641 13.641 0 0 1 5.28 17.69l-9.51 17.44a1.667 1.667 0 0 0 1.013 2.047c.264.098.549.126.827.083l77.16-23.51a5.457 5.457 0 0 0 3.62-5.21 5.535 5.535 0 0 0-3.91-5.28l-136.1-42a1.69 1.69 0 0 0-.61 0c-.499 0-.977.198-1.329.551-.353.352-.551.83-.551 1.329a1.765 1.765 0 0 0 .9 1.56l63.21 35.3Zm168.53 51.73c-39.07 0-56.76 21.71-56.76 44.75s18.13 44.32 57.63 44.32 59.4-19.54 59.4-44.57c0-26.41-21.81-44.5-60.27-44.5Zm2 77.45c-16.86 0-30.39-14.76-30.39-33.1 0-18.34 12-32.31 30.64-32.31 19.25 0 29.63 17.8 29.63 33.17 0 16.28-10.17 32.31-29.88 32.31v-.07Zm-66.85-11.72a68.485 68.485 0 0 1-33.39 9.23c-19.14 0-33.83-11.5-33.83-30.42s14.65-32.56 36.36-32.56a50.86 50.86 0 0 1 29.23 8.75l5.54-9.8a1.77 1.77 0 0 0-.82-2.37c-4.92-2.21-17.55-8.54-41.82-8.54-39.07 0-56.8 21.71-56.8 44.75s18.09 44.32 57.67 44.32a77.921 77.921 0 0 0 41.35-11.9 1.85 1.85 0 0 0 .89-2.45l-.06-.12-4.32-8.89Z"/>
   </g>
   <defs>
      <clipPath id="a">
         <path fill="#fff" d="M0 0h1024v1024H0z"/>
      </clipPath>
   </defs>
</svg>

<svg width="1024" height="1024" viewBox="0 0 1024 1024" fill="none" xmlns="http://www.w3.org/2000/svg">
<g clip-path="url(#clip0_2_3099)">
<path d="M512 1024C794.77 1024 1024 794.77 1024 512C1024 229.23 794.77 0 512 0C229.23 0 0 229.23 0 512C0 794.77 229.23 1024 512 1024Z" fill="#F8C18C"/>
<path d="M316.91 498.89C320.021 495.749 322.472 492.017 324.119 487.914C325.766 483.811 326.576 479.42 326.5 475C326.581 471.25 325.915 467.522 324.542 464.032C323.168 460.541 321.115 457.359 318.5 454.67C307.07 443.24 287.21 441.57 263.44 441.57H212V561.33C212 561.876 212.217 562.4 212.603 562.787C212.99 563.173 213.514 563.39 214.06 563.39H240.06V514.05C240.06 514.05 251.93 514.34 259.38 514.34C278.31 514.34 302.44 513.58 316.91 498.89ZM240.07 504.82V451.1C244.88 450.665 249.712 450.508 254.54 450.63C269.81 450.63 297.95 452.69 297.95 476.86C297.95 502.18 271.87 505.15 252.66 505.15C245.21 505.15 240.07 504.83 240.07 504.83V504.82ZM852 484.06C852 482.9 852 482.06 850.48 481.53C844.197 479.575 837.624 478.719 831.05 479C819.589 479.094 808.204 480.873 797.26 484.28V482.28C797.25 481.737 797.029 481.219 796.645 480.835C796.261 480.451 795.743 480.23 795.2 480.22H769.12V561.4C769.112 561.668 769.158 561.934 769.255 562.184C769.352 562.433 769.498 562.661 769.684 562.853C769.871 563.045 770.094 563.198 770.341 563.302C770.587 563.406 770.852 563.46 771.12 563.46H797.2V513C797.2 497.77 811.89 491.47 827.2 491.47C835.68 491.599 844.073 493.206 852 496.22V484.06ZM374.79 477.4C352.58 477.4 338.61 483.12 335 484.85C334.543 485.064 334.155 485.401 333.88 485.823C333.604 486.245 333.452 486.736 333.44 487.24V499.43C343.435 493.446 354.86 490.271 366.51 490.24C370.004 490.089 373.494 490.629 376.778 491.83C380.063 493.032 383.078 494.87 385.65 497.24C388.98 500.6 390.65 504.66 390.65 513.12C390.65 513.12 377.95 512.12 368 512.12C349.91 512.12 315.4 515.38 315.4 539.87C315.4 551.52 324.19 564.22 352.34 564.22C365.396 564.066 378.333 561.716 390.61 557.27V561.32C390.61 561.866 390.827 562.39 391.213 562.777C391.6 563.163 392.124 563.38 392.67 563.38H418.67V508.48C418.68 488.26 405.8 477.4 374.79 477.4ZM390.79 547.04C383.249 550.598 375.037 552.511 366.7 552.65C354.58 552.65 344.42 548.49 344.42 537.2C344.42 524.83 355.27 520.7 380.6 520.7C385.7 520.7 390.8 520.92 390.8 520.92L390.79 547.04ZM516.1 480.15C515.546 480.162 515.006 480.327 514.54 480.627C514.074 480.927 513.7 481.35 513.46 481.85L480.46 543.35C480.46 543.35 448.37 483.48 447.36 481.85C447.111 481.36 446.725 480.952 446.25 480.675C445.774 480.399 445.229 480.265 444.68 480.29H421.78L468.24 566L446 606.27H470.09C470.759 606.318 471.427 606.164 472.008 605.829C472.589 605.494 473.056 604.993 473.35 604.39L541.22 480.16L516.1 480.15ZM529.1 425.67C532.037 427.42 534.21 430.21 535.188 433.486C536.165 436.762 535.877 440.286 534.38 443.36L524.87 460.8C524.787 461.069 524.774 461.354 524.831 461.63C524.889 461.905 525.016 462.162 525.2 462.375C525.384 462.588 525.619 462.75 525.883 462.847C526.147 462.945 526.432 462.973 526.71 462.93L603.87 439.42C604.941 439.037 605.865 438.329 606.514 437.395C607.163 436.461 607.504 435.347 607.49 434.21C607.487 433.028 607.106 431.878 606.402 430.928C605.699 429.978 604.71 429.278 603.58 428.93L467.48 386.93C467.278 386.893 467.072 386.893 466.87 386.93C466.371 386.93 465.893 387.128 465.541 387.481C465.188 387.833 464.99 388.311 464.99 388.81C464.987 389.127 465.068 389.439 465.227 389.713C465.385 389.987 465.614 390.214 465.89 390.37L529.1 425.67ZM697.63 477.4C658.56 477.4 640.87 499.11 640.87 522.15C640.87 545.19 659 566.47 698.5 566.47C738 566.47 757.9 546.93 757.9 521.9C757.9 495.49 736.09 477.4 697.63 477.4ZM699.63 554.85C682.77 554.85 669.24 540.09 669.24 521.75C669.24 503.41 681.24 489.44 699.88 489.44C719.13 489.44 729.51 507.24 729.51 522.61C729.51 538.89 719.34 554.92 699.63 554.92V554.85ZM632.78 543.13C622.625 549.017 611.127 552.196 599.39 552.36C580.25 552.36 565.56 540.86 565.56 521.94C565.56 503.02 580.21 489.38 601.92 489.38C612.329 489.236 622.532 492.291 631.15 498.13L636.69 488.33C636.792 488.121 636.852 487.893 636.866 487.66C636.88 487.428 636.848 487.195 636.772 486.975C636.696 486.754 636.577 486.551 636.422 486.377C636.267 486.203 636.08 486.061 635.87 485.96C630.95 483.75 618.32 477.42 594.05 477.42C554.98 477.42 537.25 499.13 537.25 522.17C537.25 545.21 555.34 566.49 594.92 566.49C609.547 566.483 623.877 562.359 636.27 554.59C636.712 554.382 637.053 554.007 637.22 553.548C637.387 553.089 637.365 552.583 637.16 552.14L637.1 552.02L632.78 543.13Z" fill="white"/>
</g>
<defs>
<clipPath id="clip0_2_3099">
<rect width="1024" height="1024" fill="white"/>
</clipPath>
</defs>
</svg>
